public/images/icn_dialer.svg

<svg id="Layer_1" xmlns="http://www.w3.org/2000/svg" viewBox="0 0 50 50"><style>.st0{fill:#999}</style><path class="st0" d="M8.3 5H15v6.7H8.3V5zm13.4 6.7h6.7V5h-6.7v6.7zm13.3 0h6.7V5H35v6.7zM8.3 22.8H15v-6.7H8.3v6.7zm13.4 0h6.7v-6.7h-6.7v6.7zm13.3 0h6.7v-6.7H35v6.7zM8.3 33.9H15v-6.7H8.3v6.7zm13.4 0h6.7v-6.7h-6.7v6.7zm0 11.1h6.7v-6.7h-6.7V45zM35 33.9h6.7v-6.7H35v6.7z"/></svg>

<?xml version="1.0" encoding="utf-8"?>
<!-- Generator: Adobe Illustrator 20.1.0, SVG Export Plug-In . SVG Version: 6.00 Build 0)  -->
<svg version="1.1" id="Layer_1" xmlns="http://www.w3.org/2000/svg" xmlns:xlink="http://www.w3.org/1999/xlink" x="0px" y="0px"
	 viewBox="0 0 50 50" style="enable-background:new 0 0 50 50;" xml:space="preserve">
<style type="text/css">
	.st0{fill:#999999;}
</style>
<path class="st0" d="M8.3,5H15v6.7H8.3V5z M21.7,11.7h6.7V5h-6.7V11.7z M35,11.7h6.7V5H35V11.7z M8.3,22.8H15v-6.7H8.3V22.8z
	 M21.7,22.8h6.7v-6.7h-6.7V22.8z M35,22.8h6.7v-6.7H35V22.8z M8.3,33.9H15v-6.7H8.3V33.9z M21.7,33.9h6.7v-6.7h-6.7V33.9z M21.7,45
	h6.7v-6.7h-6.7V45z M35,33.9h6.7v-6.7H35V33.9z"/>
</svg>
